_site/images/occupation-marker.svg

<svg enable-background="new 0 0 18 18" height="18" viewBox="0 0 18 18" width="18" xmlns="http://www.w3.org/2000/svg"><path d="m17.239 5.629c-1.008.042-1.904.239-2.709-.674-.678-.779-1.621-1.335-2.735-1.418-.878-.063-1.168.121-1.178.978-.036 2.643-.028.271-.03 2.909 0 .144.023.351.12.419.725.537.593 1.3.59 2.04-.011 2.2-.009 4.122-.016 6.327-.008 1.028-.314 1.478-1.321 1.664-.563.105-1.18.104-1.746-.004-.956-.176-1.327-.704-1.325-1.671.001-2.409-.016-4.534.033-6.942.006-.445.298-.877.453-1.314.087-.255.234-.511.24-.766.023-2.127.031.754.016-1.374-.014-1.762-1.145-2.394-2.666-1.48-.885.532-1.825.404-2.76.333-.158-.01-.412-.334-.419-.524-.037-1.176-.046-2.358.009-3.532.006-.204.368-.564.555-.553.856.038 1.724.118 2.553.312.608.141 1.151.43 1.711-.109.12-.116.381-.125.577-.125 1.381-.007 2.774-.089 4.147.035.78.073 1.588.395 2.272.792 1.368.797 3.103 3.116 3.629 4.677z" fill="#f2ede7"/></svg>

<?xml version="1.0" encoding="utf-8"?>
<!-- Generator: Adobe Illustrator 16.0.4, SVG Export Plug-In . SVG Version: 6.00 Build 0)  -->
<!DOCTYPE svg PUBLIC "-//W3C//DTD SVG 1.1//EN" "http://www.w3.org/Graphics/SVG/1.1/DTD/svg11.dtd">
<svg version="1.1" id="Layer_1" xmlns="http://www.w3.org/2000/svg" xmlns:xlink="http://www.w3.org/1999/xlink" x="0px" y="0px"
	 width="18px" height="18px" viewBox="0 0 18 18" enable-background="new 0 0 18 18" xml:space="preserve">
<g id="vt3eWY_1_">
	<g>
		<path fill="#F2EDE7" d="M17.239,5.629c-1.008,0.042-1.904,0.239-2.709-0.674c-0.678-0.779-1.621-1.335-2.735-1.418
			c-0.878-0.063-1.168,0.121-1.178,0.978c-0.036,2.643-0.028,0.271-0.03,2.909c0,0.144,0.023,0.351,0.12,0.419
			c0.725,0.537,0.593,1.3,0.59,2.04c-0.011,2.2-0.009,4.122-0.016,6.327c-0.008,1.028-0.314,1.478-1.321,1.664
			c-0.563,0.105-1.18,0.104-1.746-0.004c-0.956-0.176-1.327-0.704-1.325-1.671c0.001-2.409-0.016-4.534,0.033-6.942
			C6.928,8.812,7.22,8.38,7.375,7.943c0.087-0.255,0.234-0.511,0.24-0.766C7.638,5.05,7.646,7.931,7.631,5.803
			c-0.014-1.762-1.145-2.394-2.666-1.48C4.08,4.855,3.14,4.727,2.205,4.656C2.047,4.646,1.793,4.322,1.786,4.132
			C1.749,2.956,1.74,1.774,1.795,0.6C1.801,0.396,2.163,0.036,2.35,0.047c0.856,0.038,1.724,0.118,2.553,0.312
			C5.511,0.5,6.054,0.789,6.614,0.25c0.12-0.116,0.381-0.125,0.577-0.125c1.381-0.007,2.774-0.089,4.147,0.035
			c0.78,0.073,1.588,0.395,2.272,0.792C14.978,1.749,16.713,4.068,17.239,5.629z"/>
	</g>
</g>
</svg>
